X:3
T:Walzer  CF 10-  (wz02096)
S:Hanny Christen. Bd.II  St. Gallen II, GraubÃ¼nden, Tessin. S.313 (wz02096) orig. Bb,Eb
S:GraubÃ¼nden. Gla Genua, Sent. S.299-329. T: Ãœberliefert vermutlich durch Nott Caviezel
O:Switzerland
%%MIDI program 21
R:Walzer
M:3/4
L:1/8
K:C%%MIDI gchordon
Gc | "G7"B4FA | G4DF | "C"E4D2 | C4CC | "G7"B,2D2F2 | A2G2F2 | "C"E2G2c2 | e2d2c2 | "G7"B4FA | 
G4DF | "C"E4G,2 | C3E DC | "G7"B,2D2F2 | A6 | F2A,2B,2 | "C"C2z2z2 || "F"A3AA2 | (cB) dc BA | "C"A4G2 | 
E2z2G2 | "G7"ed BG F2 | ed BGF2 | "C"Ed cE "F"FA | "C"G2z2^G2 | "F"A3AA2 | cB dc BA | "C"A4G2 | 
E2z2G2 | "G7"ed BG F2 | ed BG FD | "C"C3cc2 | c2z2z2 |: [K:F] ("F"A,C)A3G | G4F2 | ("Gm"B,DB3)A | A4G2 | 
"C7"EG e3d | (d4c2) |1 cd ed cB | ("F"A4F2) :|2 cd cB DE | "F"F2z(C DE) |: "F"F2z(C DE) | F2z(F GF) | 
"C7"E4G2 | z2GG GG | E4d2 |1 z2dd dd | "F"c4A2 | C2z(C DE) :|2 cd cB AG | "F"F3FF2 | F2z2z2 |] 
% wz02096  (Nov 3, 2016)

